libs/ui/packages/crypto-icons/src/svg/BTCD.svg

<svg width="24" height="24" viewBox="0 0 24 24" fill="none">
<path d="M12.8085 14.517C16.6185 13.3418 15.2587 9.3915 12.8085 9.2415C13.431 9.2415 13.9395 7.45875 13.9395 5.25C19.9215 5.67525 22.7317 15.5332 13.7595 18.6173C13.8172 17.817 13.4895 15.5835 12.8092 14.517H12.8085ZM4.5 13.35V9.24975H4.5075C6.67125 9.2415 8.4165 7.44975 8.409 5.25825H12.579C12.5797 9.73275 8.96625 13.35 4.5 13.35ZM9.96525 12.6075C12.4402 14.6415 12.5797 18.0667 12.5797 18.75H8.409C8.409 16.4835 6.93375 14.6498 5.10675 14.6498C8.20425 14.1503 8.835 13.6253 9.96525 12.6083V12.6075Z" fill="#FF6600"/>
</svg>

<svg width="24" height="24" viewBox="0 0 24 24" fill="none"><path fill="#f60" d="M12.809 14.517c3.81-1.175 2.45-5.125 0-5.275.622 0 1.13-1.783 1.13-3.992 5.983.425 8.793 10.283-.18 13.367.058-.8-.27-3.033-.95-4.1M4.5 13.35v-4.1h.008c2.163-.008 3.908-1.8 3.901-3.992h4.17c0 4.475-3.613 8.092-8.079 8.092m5.465-.742c2.475 2.034 2.615 5.459 2.615 6.142H8.409c0-2.267-1.475-4.1-3.302-4.1 3.097-.5 3.728-1.025 4.858-2.042"/></svg>
